X:13
T: Der Vorwirt
N: Q0089L
O: Suedosteuropa, Rumaenien, Banat, Sathmar
N: Wechselgesang VorsaengerIn - Gruppe.
R: Ballade, Mord, Grab, Auferstehen, Geist
M: 3/4
L: 1/4
K: G
=F | _B2A | _BBc | _B3 | A2
=F | _B2A | _BBc | _B3 | A2
_B | G2G | d2d | ccc | d2
_B | A2G | d2c | _BBA | G2

@@@ Tune index: 1306
